packages/core/src/svgs/tokens/branded/XDG.svg

<svg width="24" height="24" viewBox="0 0 24 24" fill="none" xmlns="http://www.w3.org/2000/svg">
<path fill-rule="evenodd" clip-rule="evenodd" d="M4.49999 2H13.9838C16.3813 2.03249 21.2149 4.00998 21.3712 11.6587C21.5274 19.3075 16.5112 21.74 13.9838 22H4.49999V13.25H2.625V10.125H4.49999V2ZM7.62498 5.12498H12.7287C14.5575 5.14623 18.2224 6.48748 18.25 11.6863C18.2825 17.8394 14.5687 18.8749 12.7287 18.8749H7.62498V13.25H13.2499V10.125H7.62498V5.12498Z" fill="#BA9F33"/>
</svg>

<svg xmlns="http://www.w3.org/2000/svg" width="24" height="24" fill="none" viewBox="0 0 24 24">
    <path fill="#BA9F33" fill-rule="evenodd" d="M4.5 2h9.484c2.397.032 7.23 2.01 7.387 9.659S16.511 21.74 13.984 22H4.5v-8.75H2.625v-3.125H4.5zm3.125 3.125h5.104c1.829.021 5.493 1.362 5.521 6.561.032 6.153-3.681 7.189-5.521 7.189H7.625V13.25h5.625v-3.125H7.625z" clip-rule="evenodd"/>
</svg>
